projects/seb-pictograms/svg/regular/35-Picto-Regular_black.svg

<svg xmlns="http://www.w3.org/2000/svg" viewBox="0 0 170 170"><path d="M85 142.4a2.9 2.9 0 01-2-.8L27.5 86.1a34.2 34.2 0 0148.4-48.5l9.1 9.1 9.1-9.1A34.2 34.2 0 01142.5 86L87 141.5a2.9 2.9 0 01-2 .9zm-33.3-109A28.5 28.5 0 0031.6 82L85 135.4 138.4 82a28.5 28.5 0 00-40.3-40.3L87 52.8a2.9 2.9 0 01-4.1 0l-11-11.1a28.4 28.4 0 00-20.2-8.3z"/></svg>

<svg id="PIKTO_REGULAR" xmlns="http://www.w3.org/2000/svg" viewBox="0 0 170 170"><title>regular_black</title><path d="M85,142.4a2.9,2.9,0,0,1-2-.8L27.5,86.1A34.2,34.2,0,0,1,75.9,37.6L85,46.7l9.1-9.1h0a34.2,34.2,0,0,1,48.4,48.4L87,141.5A2.9,2.9,0,0,1,85,142.4ZM51.7,33.4A28.5,28.5,0,0,0,31.6,82L85,135.4,138.4,82A28.5,28.5,0,0,0,98.1,41.7L87,52.8a2.9,2.9,0,0,1-4.1,0L71.9,41.7A28.4,28.4,0,0,0,51.7,33.4Z"/></svg>
